X:15042
T:Scots Over The Borders. GS.041
T:Carraroe,aka. GS.041
M:6/8
L:1/8
Q:120
S:George Spencer m/s, Leeds,1831
R:Jig
O:England
A:Leeds
N:Carraroe,modern title from the playing of the Rakes.
H:1831
Z:vmp.Cherri Graebe
K:D major
D3 F2A | dfe d2 A | BcB B2 b | afd e2 f | D3 F2 A | dfe d2 A |! BcB AFA
| BdF E2D :||:
fga afd | bag f2 d | fga afd |! fgf e2 d | fga afd | bag fed | dcB AFA |
 B{c}dF E2 D :||
